Numix-GalliumOS/22/mimetypes/application-x-php.svg

<?xml version="1.0" encoding="UTF-8" standalone="no"?>
<svg
   xmlns:dc="http://purl.org/dc/elements/1.1/"
   xmlns:cc="http://creativecommons.org/ns#"
   xmlns:rdf="http://www.w3.org/1999/02/22-rdf-syntax-ns#"
   xmlns:svg="http://www.w3.org/2000/svg"
   xmlns="http://www.w3.org/2000/svg"
   xmlns:sodipodi="http://sodipodi.sourceforge.net/DTD/sodipodi-0.dtd"
   xmlns:inkscape="http://www.inkscape.org/namespaces/inkscape"
   width="22"
   height="22"
   viewBox="0 0 22 22"
   id="svg2"
   version="1.1"
   inkscape:version="0.48.5 r10040"
   sodipodi:docname="application-x-php.svg">
  <metadata
     id="metadata24">
    <rdf:RDF>
      <cc:Work
         rdf:about="">
        <dc:format>image/svg+xml</dc:format>
        <dc:type
           rdf:resource="http://purl.org/dc/dcmitype/StillImage" />
      </cc:Work>
    </rdf:RDF>
  </metadata>
  <defs
     id="defs22" />
  <sodipodi:namedview
     pagecolor="#ffffff"
     bordercolor="#666666"
     borderopacity="1"
     objecttolerance="10"
     gridtolerance="10"
     guidetolerance="10"
     inkscape:pageopacity="0"
     inkscape:pageshadow="2"
     inkscape:window-width="1280"
     inkscape:window-height="970"
     id="namedview20"
     showgrid="true"
     inkscape:zoom="41.7193"
     inkscape:cx="14.647276"
     inkscape:cy="13.706853"
     inkscape:window-x="0"
     inkscape:window-y="0"
     inkscape:window-maximized="1"
     inkscape:current-layer="svg2">
    <inkscape:grid
       type="xygrid"
       id="grid3780"
       empspacing="5"
       visible="true"
       enabled="true"
       snapvisiblegridlinesonly="true" />
  </sodipodi:namedview>
  <path
     style="fill:#5a68a4;fill-opacity:1"
     d="M 4,0 C 3.527343,0 3,0.527344 3,1 l 0,20 c 0,0.445312 0.554687,1 1,1 l 14,0 c 0.445313,0 0.992367,-0.554753 1,-1 L 19,6 13,0 z"
     id="path4"
     inkscape:connector-curvature="0"
     sodipodi:nodetypes="ssssssccs" />
  <path
     style="fill:#000000;fill-opacity:0.19599998"
     d="m 14,6 5,5 0,-5 z"
     id="path6"
     inkscape:connector-curvature="0"
     sodipodi:nodetypes="cccc" />
  <path
     style="fill:#ffffff;fill-opacity:0.39200003"
     d="m 13,0 6,6 -5,0 C 13.554688,6 13,5.445312 13,5 z"
     id="path8"
     inkscape:connector-curvature="0"
     sodipodi:nodetypes="ccssc" />
  <g
     style="fill:#f9f9f9;fill-opacity:1"
     id="g12"
     transform="matrix(2.403756,0,0,2.4788544,-8.0798128,-9.4593224)">
    <path
       d="m 6.878906,8.011719 c 0.167969,0 0.304688,0.058593 0.402344,0.175781 0.097656,0.117188 0.148438,0.277344 0.148438,0.488281 0,0.207031 -0.039063,0.40625 -0.121094,0.597657 C 7.230469,9.464844 7.121094,9.617188 6.980469,9.730469 6.839844,9.84375 6.6875,9.898438 6.523438,9.898438 6.425781,9.898438 6.339844,9.878906 6.269531,9.839844 6.199219,9.796875 6.136719,9.730469 6.078125,9.632812 l -0.015625,0 C 6.046875,9.804688 6.023438,9.964844 5.988281,10.113281 l -0.128906,0.554688 -0.527344,0 0.6368186,-2.8178418 0.402344,0 -0.066506,0.4740918 0.015624,0 c 0.164063,-0.207031 0.347657,-0.3125 0.558594,-0.3125 M 6.664062,8.410156 c -0.078124,0 -0.15625,0.035156 -0.230468,0.109375 C 6.359375,8.59375 6.300781,8.691406 6.253906,8.8125 6.210938,8.933594 6.1875,9.070312 6.1875,9.214844 c 0,0.089844 0.023438,0.15625 0.066406,0.210937 0.042969,0.050781 0.101563,0.078125 0.179688,0.078125 0.078125,0 0.152344,-0.039062 0.222656,-0.113281 C 6.726562,9.316406 6.785156,9.214844 6.828125,9.082031 6.871094,8.953125 6.894531,8.824219 6.894531,8.695312 c 0,-0.191406 -0.078125,-0.285156 -0.230469,-0.285156"
       id="path14"
       style="fill:#f9f9f9;fill-opacity:1"
       inkscape:connector-curvature="0"
       sodipodi:nodetypes="csscssccccccccccccscscsscsc" />
    <path
       d="m 8.769531,9.867188 -0.527343,0 0.238281,-1.0625 C 8.5,8.730469 8.511719,8.664062 8.511719,8.609375 c 0,-0.132813 -0.066407,-0.199219 -0.191407,-0.199219 -0.105468,0 -0.203124,0.0625 -0.292968,0.183594 -0.085938,0.125 -0.15625,0.296875 -0.207032,0.519531 l -0.171874,0.753907 -0.527344,0 0.6345339,-2.8238851 0.527343,0 C 8.2400029,7.2425219 8.148438,7.679688 8.121094,7.785156 8.097656,7.890625 8.046875,8.058594 7.972656,8.289062 l 0.011719,0 C 8.058594,8.207031 8.140625,8.136719 8.226562,8.089844 8.316406,8.039062 8.417969,8.011719 8.535156,8.011719 c 0.164063,0 0.285156,0.046875 0.375,0.136719 C 9,8.238281 9.042969,8.367188 9.042969,8.535156 c 0,0.082032 -0.015625,0.179688 -0.039063,0.292969 L 8.769531,9.867188"
       id="path16"
       style="fill:#f9f9f9;fill-opacity:1"
       inkscape:connector-curvature="0"
       sodipodi:nodetypes="cccssccccccccccssscc" />
    <path
       d="m 10.113281,8.011719 c 0.171875,0 0.304688,0.058593 0.40625,0.175781 0.09766,0.117188 0.148438,0.277344 0.148438,0.488281 0,0.207031 -0.04297,0.40625 -0.121094,0.597657 -0.08203,0.191406 -0.191406,0.34375 -0.328125,0.457031 -0.140625,0.113281 -0.292969,0.167969 -0.460938,0.167969 -0.097656,0 -0.179687,-0.019532 -0.25,-0.058594 C 9.4375,9.796875 9.375,9.730469 9.3125,9.632812 l -0.011719,0 C 9.285156,9.804688 9.261719,9.964844 9.222656,10.113281 l -0.125,0.554688 -0.527344,0 0.6289062,-2.8178418 0.402344,0 -0.058593,0.4740918 0.015625,0 C 9.71875,8.117188 9.90625,8.011719 10.113281,8.011719 M 9.902344,8.410156 c -0.078125,0 -0.15625,0.035156 -0.230469,0.109375 C 9.597656,8.59375 9.539062,8.691406 9.492188,8.8125 9.449219,8.933594 9.425781,9.070312 9.425781,9.214844 c 0,0.089844 0.023438,0.15625 0.066407,0.210937 0.042968,0.050781 0.101562,0.078125 0.175781,0.078125 0.078125,0 0.15625,-0.039062 0.226562,-0.113281 0.070313,-0.074219 0.128907,-0.175781 0.171875,-0.308594 0.04297,-0.128906 0.06641,-0.257812 0.06641,-0.386719 0,-0.191406 -0.07812,-0.285156 -0.230468,-0.285156"
       id="path18"
       style="fill:#f9f9f9;fill-opacity:1"
       inkscape:connector-curvature="0"
       sodipodi:nodetypes="ccsccsccccccccccccscscsscsc" />
  </g>
</svg>

<svg xmlns="http://www.w3.org/2000/svg" viewBox="0 0 22 22">
 <path d="m 4 0 c -0.473 0 -1 0.527 -1 1 l 0 20 c 0 0.445 0.555 1 1 1 l 14 0 c 0.445 0 0.992 -0.555 1 -1 l 0 -15 -6 -6 z" style="fill:#5a68a4;fill-opacity:1"/>
 <path d="m 14 6 5 5 0 -5 z" style="fill:#000;fill-opacity:0.196"/>
 <path d="m 13 0 6 6 -5 0 c -0.445 0 -1 -0.555 -1 -1 z" style="fill:#fff;fill-opacity:0.392"/>
 <g transform="matrix(2.403756,0,0,2.4788544,-8.0798128,-9.4593224)" style="fill:#f9f9f9;fill-opacity:1">
  <path d="m 6.879 8.01 c 0.168 0 0.305 0.059 0.402 0.176 0.098 0.117 0.148 0.277 0.148 0.488 0 0.207 -0.039 0.406 -0.121 0.598 c -0.078 0.191 -0.187 0.344 -0.328 0.457 -0.141 0.113 -0.293 0.168 -0.457 0.168 -0.098 0 -0.184 -0.02 -0.254 -0.059 -0.07 -0.043 -0.133 -0.109 -0.191 -0.207 l -0.016 0 c -0.016 0.172 -0.039 0.332 -0.074 0.48 l -0.129 0.555 -0.527 0 0.637 -2.818 0.402 0 -0.067 0.474 0.016 0 c 0.164 -0.207 0.348 -0.313 0.559 -0.313 m -0.215 0.398 c -0.078 0 -0.156 0.035 -0.23 0.109 c -0.074 0.074 -0.133 0.172 -0.18 0.293 -0.043 0.121 -0.066 0.258 -0.066 0.402 c 0 0.09 0.023 0.156 0.066 0.211 0.043 0.051 0.102 0.078 0.18 0.078 0.078 0 0.152 -0.039 0.223 -0.113 c 0.07 -0.074 0.129 -0.176 0.172 -0.309 0.043 -0.129 0.066 -0.258 0.066 -0.387 c 0 -0.191 -0.078 -0.285 -0.23 -0.285"/>
  <path d="m 8.77 9.867 -0.527 0 0.238 -1.063 c 0.02 -0.074 0.031 -0.141 0.031 -0.195 c 0 -0.133 -0.066 -0.199 -0.191 -0.199 -0.105 0 -0.203 0.063 -0.293 0.184 -0.086 0.125 -0.156 0.297 -0.207 0.52 l -0.172 0.754 -0.527 0 0.635 -2.824 0.527 0 c -0.043 0.199 -0.135 0.636 -0.162 0.742 -0.023 0.105 -0.074 0.273 -0.148 0.504 l 0.012 0 c 0.074 -0.082 0.156 -0.152 0.242 -0.199 0.09 -0.051 0.191 -0.078 0.309 -0.078 c 0.164 0 0.285 0.047 0.375 0.137 c 0.09 0.09 0.133 0.219 0.133 0.387 c 0 0.082 -0.016 0.18 -0.039 0.293 l -0.234 1.039"/>
  <path d="m 10.113 8.01 c 0.172 0 0.305 0.059 0.406 0.176 0.098 0.117 0.148 0.277 0.148 0.488 0 0.207 -0.043 0.406 -0.121 0.598 -0.082 0.191 -0.191 0.344 -0.328 0.457 -0.141 0.113 -0.293 0.168 -0.461 0.168 -0.098 0 -0.18 -0.02 -0.25 -0.059 c -0.07 -0.043 -0.133 -0.109 -0.195 -0.207 l -0.012 0 c -0.016 0.172 -0.039 0.332 -0.078 0.48 l -0.125 0.555 -0.527 0 0.629 -2.818 0.402 0 -0.059 0.474 0.016 0 c 0.16 -0.207 0.348 -0.313 0.555 -0.313 m -0.211 0.398 c -0.078 0 -0.156 0.035 -0.23 0.109 c -0.074 0.074 -0.133 0.172 -0.18 0.293 -0.043 0.121 -0.066 0.258 -0.066 0.402 c 0 0.09 0.023 0.156 0.066 0.211 0.043 0.051 0.102 0.078 0.176 0.078 0.078 0 0.156 -0.039 0.227 -0.113 0.07 -0.074 0.129 -0.176 0.172 -0.309 0.043 -0.129 0.066 -0.258 0.066 -0.387 0 -0.191 -0.078 -0.285 -0.23 -0.285"/>
 </g>
</svg>
